assets/bank-tab/Asset/Gift Card.svg

<svg width="24" height="16" viewBox="0 0 24 16" fill="none" xmlns="http://www.w3.org/2000/svg">
<g clip-path="url(#clip0_5371_1119)">
<path d="M3.76811 0.31247C9.7819 -0.104387 14.1673 -0.104414 20.188 0.314423C21.7288 0.421608 22.4995 0.475587 23.0249 0.991181C23.5502 1.50676 23.6241 2.26588 23.771 3.78415C24.0668 6.84109 24.0828 9.33658 23.7828 12.3759C23.6366 13.8562 23.5631 14.5962 23.0435 15.1093C22.5239 15.6224 21.7681 15.6819 20.2564 15.7998C14.1981 16.2723 9.79878 16.2754 3.7476 15.8066C2.20191 15.6869 1.42896 15.6266 0.906777 15.1035C0.3846 14.5802 0.320019 13.8137 0.191933 12.2812C-0.0576322 9.29522 -0.066602 6.83322 0.184121 3.82712C0.312214 2.29142 0.376266 1.52353 0.903848 0.998993C1.43143 0.474505 2.2103 0.420456 3.76811 0.31247ZM4.75932 3.06052C4.34193 3.06058 4.00053 3.3566 4.00053 3.71774C4.0007 4.07876 4.34204 4.37393 4.75932 4.37399H7.08939C7.41215 4.37399 7.71268 4.45389 7.9683 4.59177C8.27918 4.75962 8.08334 5.10934 7.72025 5.10934H4.75932C4.34193 5.10941 4.00053 5.40543 4.00053 5.76657C4.00068 6.1276 4.34202 6.42276 4.75932 6.42282H7.90775C8.24657 6.42288 8.45617 6.73913 8.19779 6.93552C7.90235 7.16002 7.51434 7.29684 7.08939 7.29684H4.75932C4.47096 7.29689 4.19813 7.44108 4.0767 7.67087C3.94767 7.90071 3.98536 8.17015 4.16752 8.36716L8.34232 12.8515C8.49412 13.0157 8.71401 13.0947 8.93412 13.0947C9.10098 13.0947 9.26754 13.0486 9.41166 12.9502C9.73803 12.7203 9.79156 12.3068 9.52592 12.0244L6.82182 9.12106C6.63334 8.918 6.79447 8.60945 7.08939 8.60934C8.48864 8.60934 9.67905 7.82728 10.1187 6.74216C10.193 6.55897 10.3787 6.42282 10.5962 6.42282H11.2408C11.6581 6.42282 12.0004 6.12764 12.0005 5.76657C12.0005 5.40539 11.6582 5.10934 11.2408 5.10934H10.4419C10.2861 5.10922 10.1497 5.01364 10.0953 4.88278C9.99911 4.65137 10.1761 4.37423 10.4517 4.37399H11.2408C11.6581 4.37399 12.0004 4.0788 12.0005 3.71774C12.0005 3.35657 11.6582 3.06052 11.2408 3.06052H4.75932ZM18.0005 10.0976C17.4482 10.0976 17.0005 10.5497 17.0005 11.1074C17.0007 11.6649 17.4484 12.1172 18.0005 12.1172H20.0005C20.5525 12.117 21.0003 11.6648 21.0005 11.1074C21.0005 10.5498 20.5527 10.0978 20.0005 10.0976H18.0005Z" fill="#785103"/>
</g>
<defs>
<clipPath id="clip0_5371_1119">
<rect width="24" height="16" fill="white"/>
</clipPath>
</defs>
</svg>

<svg xmlns="http://www.w3.org/2000/svg" width="24" height="16" fill="none" viewBox="0 0 24 16"><g clip-path="url(#a)"><path fill="#785103" d="M3.768.312c6.014-.416 10.4-.416 16.42.002 1.54.108 2.312.162 2.837.677.525.516.6 1.275.746 2.793.296 3.057.312 5.553.012 8.592-.146 1.48-.22 2.22-.74 2.733s-1.275.573-2.787.69c-6.058.473-10.457.476-16.508.008-1.546-.12-2.319-.18-2.841-.703-.522-.524-.587-1.29-.715-2.823-.25-2.986-.259-5.448-.008-8.454C.312 2.291.376 1.524.904 1 1.43.475 2.21.42 3.768.312m.991 2.749c-.417 0-.758.296-.758.657 0 .36.341.656.758.656h2.33c.323 0 .624.08.88.218.31.168.114.517-.249.517H4.76c-.418 0-.76.296-.76.658 0 .36.342.656.76.656h3.148c.339 0 .548.316.29.513a1.83 1.83 0 0 1-1.109.36H4.76c-.288 0-.56.145-.682.375-.13.23-.092.5.09.696l4.175 4.484a.8.8 0 0 0 .592.244.84.84 0 0 0 .478-.145c.326-.23.38-.643.114-.926L6.822 9.121c-.189-.203-.028-.512.267-.512 1.4 0 2.59-.782 3.03-1.867a.52.52 0 0 1 .477-.32h.645c.417 0 .76-.294.76-.655s-.343-.658-.76-.658h-.8a.38.38 0 0 1-.346-.226c-.096-.232.081-.509.357-.509h.789c.417 0 .76-.295.76-.656s-.343-.657-.76-.657zM18 10.098c-.552 0-1 .452-1 1.01 0 .557.448 1.01 1 1.01h2c.552-.001 1-.453 1-1.01 0-.558-.447-1.01-1-1.01z"/></g><defs><clipPath id="a"><path fill="#fff" d="M0 0h24v16H0z"/></clipPath></defs></svg>
